X:480
T: Es waren drei Gesellen (5-76), S. 122
N: P0750
O: Lothringen
S: MERKELBACH-PINCK, Angelika: Verklingende Weisen, Bd 5, Kassel 1962]
R: Verfhrung]
M: 4/4
L: 1/8
K: F
C2 | F3CF2A2 | F2C2z2
F2 | A3FA2B2 | A2G2z2
G2 | BBBBB2GA | B2AAG2z2
FGGGGcc2 | AAGGF2
G2 | BBBBB2GA | B2AAG2z2
FGGGGccB | AAGGF2

